dhis-2/dhis-support/dhis-support-system/src/main/resources/SVGs/letrina_outline.svg

<?xml version="1.0" encoding="UTF-8" standalone="no"?>
<!-- Created with Inkscape (http://www.inkscape.org/) -->
<svg id="svg8" xmlns:rdf="http://www.w3.org/1999/02/22-rdf-syntax-ns#" xmlns="http://www.w3.org/2000/svg" xmlns:osb="http://www.openswatchbook.org/uri/2009/osb" height="48" width="48" version="1.1" xmlns:cc="http://creativecommons.org/ns#" viewBox="0 0 12.7 12.7" xmlns:dc="http://purl.org/dc/elements/1.1/">
 <title id="title4753">UIO-icon</title>
 <metadata id="metadata5">
  <rdf:RDF>
   <cc:Work rdf:about="">
    <dc:format>image/svg+xml</dc:format>
    <dc:type rdf:resource="http://purl.org/dc/dcmitype/StillImage"/>
    <dc:title>UIO-icon</dc:title>
    <dc:creator>
     <cc:Agent>
      <dc:title>Joaquín Urbano</dc:title>
     </cc:Agent>
    </dc:creator>
    <dc:rights>
     <cc:Agent>
      <dc:title>GPL</dc:title>
     </cc:Agent>
    </dc:rights>
   </cc:Work>
  </rdf:RDF>
 </metadata>
 <g id="layer1" transform="translate(0,-284.3)">
  <path id="rect5822" d="m10.316 4c-0.5496 0-0.9918 0.4422-0.9918 0.9922v38.025c0.000007948 0.54999 0.44219 0.99219 0.99219 0.99219h27.367c0.55 0 0.99219-0.44219 0.99219-0.99219v-38.025c0.001-0.5498-0.441-0.992-0.991-0.992zm0.48242 0.51953h26.25c0.88692 0.00059339 1.1035 0.097067 1.1035 0.97852v37.014c0 0.83116-0.004566 0.9871-1.0547 0.98438l-26.178-0.068c-0.9869-0.002-0.9513-0.437-0.9542-1.283l-0.121-36.334c-0.0038-1.1323 0.0847-1.2915 0.9552-1.2915zm9.9902 3.7988c-2.3062 0-4.1621 1.8559-4.1621 4.1621v23.928c0 2.3062 1.8559 4.1621 4.1621 4.1621h6.6523c2.3062 0 4.1621-1.8559 4.1621-4.1621v-23.928c0-0.20148-0.015668-0.39842-0.042969-0.5918 0.007199-0.027334-0.007813-0.05599-0.011719-0.083984-0.32-1.9811-2.03-3.4856-4.106-3.4856zm6.8828 0.51953c1.9966-0.0013566 3.3825 2.0186 3.3828 3.5293l0.005859 23.906c0.0003132 1.3555-0.87729 3.7832-3.4375 3.7812l-6.9727-0.005859c-2.6261-0.002002-3.4962-2.5845-3.5039-3.7266l0.007813-23.936c0.00079601-2.4388 2.2311-3.5439 3.7246-3.5449zm-11.63 2.6132c-0.062891-0.019427-0.13229-0.015537-0.19531 0.017578l-5.0547 2.6562c-0.12604 0.066231-0.17415 0.21993-0.10742 0.3457 0.066726 0.12578 0.22162 0.17365 0.34766 0.10742l5.0547-2.6543c0.12604-0.066231 0.17415-0.22188 0.10742-0.34766-0.033363-0.062888-0.089452-0.10557-0.15234-0.125zm16.074 0c-0.062891 0.019427-0.11898 0.064065-0.15234 0.12695-0.066726 0.12578-0.018615 0.27947 0.10742 0.3457l5.0547 2.6562c0.12604 0.066231 0.28093 0.018354 0.34766-0.10742 0.066726-0.12578 0.018615-0.27947-0.10742-0.3457l-5.0547-2.6562c-0.063018-0.033116-0.13242-0.038958-0.19531-0.019531zm-16.213 2.2812c-0.062891-0.019427-0.13229-0.015537-0.19531 0.017578l-5.0547 2.6562c-0.12604 0.066231-0.17415 0.21993-0.10742 0.3457 0.066726 0.12578 0.22162 0.17365 0.34766 0.10742l5.0547-2.6543c0.12604-0.066231 0.17415-0.22188 0.10742-0.34766-0.033363-0.062888-0.089452-0.10557-0.15234-0.125zm16.213 0c-0.062891 0.019427-0.11898 0.062112-0.15234 0.125-0.066726 0.12578-0.018615 0.28143 0.10742 0.34766l5.0547 2.6562c0.12604 0.066231 0.28093 0.016401 0.34766-0.10938 0.066726-0.12578 0.018615-0.27947-0.10742-0.3457l-5.054-2.656c-0.063018-0.033116-0.13242-0.037005-0.19531-0.017578zm-8.2539 0.14453c-1.5097-0.00000226-2.7324 1.2247-2.7324 2.7344-9e-8 1.5097 1.2227 2.7324 2.7324 2.7324s2.7344-1.2227 2.7344-2.7324c-0.00002202-1.5097-1.2247-2.7344-2.7344-2.7344zm-0.017 0.498c1.2426 7e-8 2.25 1.0074 2.25 2.25-7e-8 1.2426-1.0074 2.25-2.25 2.25-1.2426-7e-8 -2.25-1.0074-2.25-2.25 7e-8 -1.2426 1.0074-2.25 2.25-2.25zm-7.9414 1.6387c-0.062891-0.019427-0.13229-0.015537-0.19531 0.017578l-5.0547 2.6562c-0.12604 0.066231-0.17415 0.21993-0.10742 0.3457 0.066726 0.12578 0.22162 0.17365 0.34766 0.10742l5.0547-2.6543c0.12604-0.066231 0.17415-0.22188 0.10742-0.34766-0.033363-0.062888-0.089452-0.10557-0.15234-0.125zm16.279 0c-0.062891 0.019427-0.11898 0.062112-0.15234 0.125-0.066726 0.12578-0.018615 0.28143 0.10742 0.34766l5.0547 2.6543c0.12604 0.066231 0.28093 0.018354 0.34766-0.10742 0.066726-0.12578 0.018615-0.27947-0.10742-0.3457l-5.0547-2.6562c-0.063018-0.033116-0.13242-0.037005-0.19531-0.017578zm-16.279 2.2812c-0.062891-0.019427-0.13229-0.015537-0.19531 0.017578l-5.0547 2.6562c-0.12604 0.066231-0.17415 0.21993-0.10742 0.3457 0.066726 0.12578 0.22162 0.17365 0.34766 0.10742l5.0547-2.6543c0.12604-0.066231 0.17415-0.22188 0.10742-0.34766-0.033363-0.062888-0.089452-0.10557-0.15234-0.125zm16.279 0c-0.062891 0.019427-0.11898 0.062112-0.15234 0.125-0.066726 0.12578-0.018615 0.28143 0.10742 0.34766l5.0547 2.6543c0.12604 0.066231 0.28093 0.018354 0.34766-0.10742 0.066726-0.12578 0.018615-0.27947-0.10742-0.3457l-5.0547-2.6562c-0.063018-0.033116-0.13242-0.037005-0.19531-0.017578zm-16.28 2.283c-0.062891-0.019427-0.13229-0.015537-0.19531 0.017578l-5.0547 2.6562c-0.12604 0.066231-0.17415 0.21993-0.10742 0.3457 0.066726 0.12578 0.22162 0.17365 0.34766 0.10742l5.0547-2.6543c0.12604-0.066231 0.17415-0.22188 0.10742-0.34766-0.033363-0.062888-0.089452-0.10557-0.15234-0.125zm16.213 0c-0.062891 0.019427-0.11898 0.062112-0.15234 0.125-0.066726 0.12578-0.018615 0.28143 0.10742 0.34766l5.055 2.654c0.12604 0.066231 0.28093 0.018354 0.34766-0.10742 0.066726-0.12578 0.018615-0.27947-0.10742-0.3457l-5.0547-2.6562c-0.063018-0.033116-0.13242-0.037005-0.19531-0.017578zm-16.213 2.2812c-0.062891-0.019427-0.13229-0.015537-0.19531 0.017578l-5.0547 2.6562c-0.12604 0.066231-0.17415 0.21993-0.10742 0.3457 0.066726 0.12578 0.22162 0.17365 0.34766 0.10742l5.0547-2.6543c0.12604-0.066231 0.17415-0.22188 0.10742-0.34766-0.033363-0.062888-0.089452-0.10557-0.15234-0.125zm16.279 0c-0.062891 0.019427-0.11898 0.062112-0.15234 0.125-0.066726 0.12578-0.018615 0.28143 0.10742 0.34766l5.0547 2.6562c0.12604 0.066231 0.28093 0.016401 0.34766-0.10938 0.066726-0.12578 0.018615-0.27947-0.10742-0.3457l-5.0547-2.6562c-0.063018-0.033116-0.13242-0.037005-0.19531-0.017578zm-16.279 2.2812c-0.062891-0.019427-0.13229-0.015537-0.19531 0.017578l-5.0547 2.6562c-0.12604 0.066231-0.17415 0.21993-0.10742 0.3457 0.066726 0.12578 0.22162 0.17365 0.34766 0.10742l5.0547-2.6543c0.12604-0.066231 0.17415-0.22188 0.10742-0.34766-0.033363-0.062888-0.089452-0.10557-0.15234-0.125zm16.279 0c-0.062891 0.019427-0.11898 0.062112-0.15234 0.125-0.066726 0.12578-0.018615 0.28143 0.10742 0.34766l5.0547 2.6543c0.12604 0.066231 0.28093 0.018354 0.34766-0.10742 0.066726-0.12578 0.018615-0.27947-0.10742-0.3457l-5.0547-2.6562c-0.063018-0.033116-0.13242-0.037005-0.19531-0.017578zm-16.277 2.2812c-0.062891-0.019427-0.13425-0.015537-0.19727 0.017578l-5.0527 2.6562c-0.12604 0.066231-0.17415 0.21993-0.10742 0.3457 0.066726 0.12578 0.22162 0.17365 0.34766 0.10742l5.0547-2.6543c0.12604-0.066231 0.17415-0.22188 0.10742-0.34766-0.033363-0.062888-0.089452-0.10557-0.15234-0.125zm16.211 0.001953c-0.062891 0.019427-0.11898 0.062112-0.15234 0.125-0.066726 0.12578-0.018615 0.28143 0.10742 0.34766l5.0547 2.6562c0.12604 0.066231 0.28093 0.016401 0.34766-0.10938 0.066726-0.12578 0.018615-0.27947-0.10742-0.3457l-5.0547-2.6562c-0.063018-0.033116-0.13242-0.037005-0.19531-0.017578zm-16.213 2.2812c-0.062891-0.019427-0.13229-0.015537-0.19531 0.017578l-5.0547 2.6562c-0.12604 0.066231-0.17415 0.21993-0.10742 0.3457 0.066726 0.12578 0.22162 0.17365 0.34766 0.10742l5.0547-2.6543c0.12604-0.066231 0.17415-0.22188 0.10742-0.34766-0.033363-0.062888-0.089452-0.10557-0.15234-0.125zm16.213 0c-0.062891 0.019427-0.11898 0.062112-0.15234 0.125-0.066726 0.12578-0.018615 0.28143 0.10742 0.34766l5.055 2.655c0.12604 0.066231 0.28093 0.018354 0.34766-0.10742 0.066726-0.12578 0.018615-0.27947-0.10742-0.3457l-5.0547-2.6562c-0.063018-0.033116-0.13242-0.037005-0.19531-0.017578zm-16.213 2.2812c-0.062891-0.019427-0.13229-0.015537-0.19531 0.017578l-5.0547 2.6562c-0.12604 0.066231-0.17415 0.21993-0.10742 0.3457 0.066726 0.12578 0.22162 0.17365 0.34766 0.10742l5.0547-2.6543c0.12604-0.066231 0.17415-0.22188 0.10742-0.34766-0.033363-0.062888-0.089452-0.10557-0.15234-0.125zm16.279 0c-0.062891 0.019427-0.11898 0.062112-0.15234 0.125-0.066726 0.12578-0.018615 0.28143 0.10742 0.34766l5.0547 2.6562c0.12604 0.066231 0.28093 0.016401 0.34766-0.10938 0.066726-0.12578 0.018615-0.27947-0.10742-0.3457l-5.0547-2.6562c-0.063018-0.033116-0.13242-0.037005-0.19531-0.017578z" transform="matrix(.26458 0 0 .26458 0 284.3)" fill="#333"/>
 </g>
</svg>

<svg width="48" height="48" viewBox="0 0 48 48" fill="none" xmlns="http://www.w3.org/2000/svg">
<path d="M10.3158 4C9.76617 4 9.32397 4.44219 9.32397 4.99219V43.0167C9.32398 43.5667 9.76617 44.0089 10.3162 44.0089H37.6828C38.2328 44.0089 38.675 43.5667 38.675 43.0167V4.99219C38.676 4.44239 38.234 4.0002 37.684 4.0002L10.3158 4ZM10.7982 4.51952H37.0478C37.9348 4.52012 38.1513 4.61659 38.1513 5.49803V42.5116C38.1513 43.3427 38.1468 43.4987 37.0966 43.4959L10.919 43.4279C9.93209 43.4259 9.9677 42.9909 9.9648 42.145L9.84379 5.81141C9.83999 4.67912 9.92849 4.51992 10.799 4.51992L10.7982 4.51952ZM20.7883 8.31828C18.4821 8.31828 16.6262 10.1742 16.6262 12.4803V36.408C16.6262 38.7142 18.4821 40.5701 20.7883 40.5701H27.4405C29.7466 40.5701 31.6025 38.7142 31.6025 36.408V12.4803C31.6025 12.2788 31.5868 12.0819 31.5595 11.8885C31.5667 11.8612 31.5517 11.8325 31.5478 11.8045C31.2278 9.82347 29.5179 8.31899 27.4419 8.31899L20.7883 8.31828ZM27.671 8.8378C29.6675 8.83644 31.0534 10.8564 31.0537 12.3671L31.0596 36.2728C31.0599 37.6282 30.1823 40.0559 27.6221 40.0539L20.6495 40.048C18.0234 40.046 17.1534 37.4636 17.1457 36.3215L17.1535 12.3858C17.1543 9.94703 19.3845 8.84194 20.878 8.84094L27.671 8.8378ZM16.0411 11.451C15.9782 11.4315 15.9088 11.4354 15.8458 11.4685L10.7912 14.1247C10.6651 14.1909 10.617 14.3446 10.6837 14.4704C10.7505 14.5962 10.9054 14.6441 11.0314 14.5778L16.086 11.9236C16.2121 11.8573 16.2602 11.7017 16.1935 11.5759C16.1601 11.513 16.104 11.4703 16.0411 11.4509V11.451ZM32.1149 11.451C32.052 11.4704 31.9959 11.515 31.9626 11.5779C31.8958 11.7037 31.944 11.8574 32.07 11.9236L37.1246 14.5798C37.2507 14.646 37.4056 14.5981 37.4723 14.4724C37.539 14.3466 37.4909 14.1929 37.3649 14.1267L32.3102 11.4705C32.2472 11.4374 32.1778 11.4315 32.1149 11.451ZM15.9021 13.7321C15.8392 13.7127 15.7698 13.7166 15.7068 13.7497L10.6522 16.4059C10.5261 16.4721 10.478 16.6258 10.5447 16.7516C10.6115 16.8774 10.7664 16.9252 10.8924 16.859L15.947 14.2047C16.0731 14.1385 16.1212 13.9829 16.0545 13.8571C16.0211 13.7942 15.965 13.7515 15.9021 13.7321ZM32.1149 13.7321C32.052 13.7516 31.9959 13.7942 31.9626 13.8571C31.8958 13.9829 31.944 14.1386 32.07 14.2048L37.1246 16.861C37.2507 16.9272 37.4056 16.8774 37.4723 16.7516C37.539 16.6258 37.4909 16.4721 37.3649 16.4059L32.3109 13.7499C32.2479 13.7168 32.1785 13.7129 32.1156 13.7323L32.1149 13.7321ZM23.8611 13.8767C22.3514 13.8767 21.1287 15.1014 21.1287 16.611C21.1287 18.1207 22.3514 19.3434 23.8611 19.3434C25.3708 19.3434 26.5955 18.1207 26.5955 16.611C26.5955 15.1014 25.3708 13.8767 23.8611 13.8767ZM23.8441 14.3747C25.0867 14.3747 26.0941 15.382 26.0941 16.6246C26.0941 17.8672 25.0867 18.8746 23.8441 18.8746C22.6015 18.8746 21.5941 17.8672 21.5941 16.6246C21.5941 15.382 22.6015 14.3747 23.8441 14.3747ZM15.9028 16.0133C15.8399 15.9939 15.7705 15.9978 15.7075 16.0309L10.6529 18.6871C10.5268 18.7533 10.4787 18.907 10.5454 19.0328C10.6122 19.1586 10.7671 19.2064 10.8931 19.1402L15.9477 16.4859C16.0738 16.4197 16.1219 16.2641 16.0552 16.1383C16.0218 16.0754 15.9657 16.0327 15.9028 16.0133ZM32.1816 16.0133C32.1187 16.0328 32.0626 16.0755 32.0293 16.1383C31.9625 16.2641 32.0107 16.4198 32.1367 16.486L37.1913 19.1403C37.3174 19.2065 37.4723 19.1586 37.539 19.0328C37.6057 18.9071 37.5576 18.7534 37.4316 18.6871L32.3769 16.031C32.3139 15.9979 32.2445 15.994 32.1816 16.0134V16.0133ZM15.9028 18.2945C15.8399 18.2751 15.7705 18.279 15.7075 18.3121L10.6529 20.9683C10.5268 21.0345 10.4787 21.1882 10.5454 21.314C10.6122 21.4397 10.7671 21.4876 10.8931 21.4214L15.9477 18.7671C16.0738 18.7009 16.1219 18.5452 16.0552 18.4194C16.0218 18.3566 15.9657 18.3139 15.9028 18.2944V18.2945ZM32.1816 18.2945C32.1187 18.3139 32.0626 18.3566 32.0293 18.4195C31.9625 18.5453 32.0107 18.7009 32.1367 18.7672L37.1913 21.4214C37.3174 21.4877 37.4723 21.4398 37.539 21.314C37.6057 21.1882 37.5576 21.0345 37.4316 20.9683L32.3769 18.3122C32.3139 18.279 32.2445 18.2751 32.1816 18.2946V18.2945ZM15.9018 20.5775C15.8389 20.5581 15.7695 20.5619 15.7065 20.5951L10.6519 23.2512C10.5258 23.3175 10.4777 23.4712 10.5444 23.5969C10.6112 23.7227 10.7661 23.7706 10.8921 23.7043L15.9467 21.0501C16.0728 20.9838 16.1209 20.8282 16.0542 20.7024C16.0208 20.6395 15.9647 20.5968 15.9018 20.5774V20.5775ZM32.1146 20.5775C32.0517 20.5969 31.9956 20.6396 31.9623 20.7025C31.8955 20.8283 31.9437 20.9839 32.0697 21.0501L37.1246 23.7041C37.2507 23.7703 37.4056 23.7225 37.4723 23.5967C37.539 23.4709 37.4909 23.3172 37.3649 23.251L32.3102 20.5948C32.2472 20.5617 32.1778 20.5578 32.1149 20.5772L32.1146 20.5775ZM15.9018 22.8587C15.8389 22.8392 15.7695 22.8431 15.7065 22.8762L10.6519 25.5324C10.5258 25.5986 10.4777 25.7523 10.5444 25.8781C10.6112 26.0039 10.7661 26.0517 10.8921 25.9855L15.9467 23.3312C16.0728 23.265 16.1209 23.1094 16.0542 22.9836C16.0208 22.9207 15.9647 22.878 15.9018 22.8586V22.8587ZM32.1806 22.8587C32.1177 22.8781 32.0616 22.9208 32.0283 22.9837C31.9615 23.1094 32.0097 23.2651 32.1357 23.3313L37.1903 25.9875C37.3164 26.0537 37.4713 26.0039 37.538 25.8781C37.6047 25.7523 37.5566 25.5986 37.4306 25.5324L32.3759 22.8762C32.3129 22.8431 32.2435 22.8392 32.1806 22.8587ZM15.9018 25.1398C15.8389 25.1204 15.7695 25.1243 15.7065 25.1574L10.6519 27.8136C10.5258 27.8798 10.4777 28.0335 10.5444 28.1593C10.6112 28.285 10.7661 28.3329 10.8921 28.2667L15.9467 25.6124C16.0728 25.5462 16.1209 25.3905 16.0542 25.2648C16.0208 25.2019 15.9647 25.1592 15.9018 25.1398ZM32.1806 25.1398C32.1177 25.1593 32.0616 25.2019 32.0283 25.2648C31.9615 25.3906 32.0097 25.5462 32.1357 25.6125L37.1903 28.2667C37.3164 28.333 37.4713 28.2851 37.538 28.1593C37.6047 28.0335 37.5566 27.8799 37.4306 27.8136L32.3759 25.1575C32.3129 25.1243 32.2435 25.1205 32.1806 25.1399V25.1398ZM15.9038 27.421C15.8409 27.4016 15.7696 27.4055 15.7065 27.4386L10.6539 30.0947C10.5279 30.161 10.4798 30.3147 10.5465 30.4404C10.6132 30.5662 10.7681 30.6141 10.8941 30.5479L15.9488 27.8936C16.0748 27.8274 16.1229 27.6717 16.0562 27.5459C16.0228 27.483 15.9667 27.4404 15.9039 27.4209L15.9038 27.421ZM32.1146 27.4229C32.0517 27.4424 31.9956 27.4851 31.9623 27.5479C31.8955 27.6737 31.9437 27.8294 32.0697 27.8956L37.1243 30.5518C37.2504 30.618 37.4053 30.5682 37.472 30.4424C37.5387 30.3166 37.4906 30.1629 37.3646 30.0967L32.3099 27.4405C32.2469 27.4074 32.1775 27.4035 32.1146 27.423V27.4229ZM15.9018 29.7041C15.8389 29.6847 15.7695 29.6886 15.7065 29.7217L10.6519 32.3779C10.5258 32.4441 10.4777 32.5978 10.5444 32.7236C10.6112 32.8493 10.7661 32.8972 10.8921 32.831L15.9467 30.1767C16.0728 30.1105 16.1209 29.9548 16.0542 29.8291C16.0208 29.7662 15.9647 29.7235 15.9018 29.7041ZM32.1146 29.7041C32.0517 29.7235 31.9956 29.7662 31.9623 29.8291C31.8955 29.9549 31.9437 30.1105 32.0697 30.1768L37.1246 32.8317C37.2507 32.898 37.4056 32.8501 37.4723 32.7243C37.539 32.5985 37.4909 32.4449 37.3649 32.3786L32.3102 29.7225C32.2472 29.6893 32.1778 29.6855 32.1149 29.7049L32.1146 29.7041ZM15.9018 31.9853C15.8389 31.9659 15.7695 31.9698 15.7065 32.0029L10.6519 34.659C10.5258 34.7253 10.4777 34.879 10.5444 35.0047C10.6112 35.1305 10.7661 35.1784 10.8921 35.1122L15.9467 32.4579C16.0728 32.3917 16.1209 32.236 16.0542 32.1102C16.0208 32.0473 15.9647 32.0047 15.9018 31.9852V31.9853ZM32.1806 31.9853C32.1177 32.0047 32.0616 32.0474 32.0283 32.1103C31.9615 32.2361 32.0097 32.3917 32.1357 32.4579L37.1903 35.1141C37.3164 35.1803 37.4713 35.1305 37.538 35.0047C37.6047 34.879 37.5566 34.7253 37.4306 34.659L32.3759 32.0029C32.3129 31.9698 32.2435 31.9659 32.1806 31.9853Z" fill="#333333"/>
</svg>
